icons/clean_hands_fill.svg

<svg width="48" height="48" viewBox="0 0 48 48" fill="none" xmlns="http://www.w3.org/2000/svg">
<path d="M34.5 6L32.3333 13.6905L28 15.9524L32.3333 18.2143L34.5 25L36.6667 18.2143L41 15.9524L36.6667 13.6905L34.5 6Z" fill="black"/>
<path d="M20 12L19 16L16 17L19 18L20 22L21 18L24 17L21 16L20 12Z" fill="black"/>
<path d="M6 30.0007C6 29.4484 6.44772 29.0007 7 29.0007H10C10.5523 29.0007 11 29.4484 11 30.0007V40.9961C11 41.5484 10.5523 41.9961 10 41.9961H7C6.44772 41.9961 6 41.5484 6 40.9961V30.0007Z" fill="black"/>
<path d="M17.7052 29.1888C18.6371 28.764 20.9148 29.1888 20.9148 29.1888L27.541 30.6755C27.541 30.6755 29.1976 31.2065 30.7506 31.2065C32.3037 31.2065 31.3753 33.3318 30.3365 34.0738C29.2977 34.8159 28.542 34.7757 28.542 34.7757L23.1926 34.711C23.1926 34.711 27.8517 35.5606 29.6117 35.6668C30.5034 35.7206 32.0326 35.0931 33.7419 34.3917C35.4069 33.7085 37.2426 32.9553 38.8263 32.6933C42.0359 32.1623 42.5536 35.0296 41.5182 36.0915C40.4829 37.1535 32.2001 41.1889 30.7506 41.7199C29.6155 42.1358 28.2424 41.9977 26.6931 41.842C26.2641 41.7989 25.8215 41.7544 25.3668 41.7199C23.5575 41.5828 22.1749 41.1433 20.8062 40.7081C19.3391 40.2418 17.8882 39.7805 15.9451 39.7022C15.2933 39.6759 13.7674 39.7566 13 39.8015L13 30.941C14.3259 30.4693 17.0113 29.5051 17.7052 29.1888Z" fill="black"/>
</svg>

<svg
  xmlns="http://www.w3.org/2000/svg"
  width="24"
  height="24"
  viewBox="0 0 24 24"
  fill="none"
  stroke="currentColor"
  stroke-width="2"
  stroke-linecap="round"
  stroke-linejoin="round"
>
  <path d="m34.5 6-2.167 7.69L28 15.953l4.333 2.262L34.5 25l2.167-6.786L41 15.952l-4.333-2.261z" />
  <path d="m20 12-1 4-3 1 3 1 1 4 1-4 3-1-3-1z" />
  <path d="M6 30a1 1 0 0 1 1-1h3a1 1 0 0 1 1 1v10.996a1 1 0 0 1-1 1H7a1 1 0 0 1-1-1z" />
  <path d="M17.705 29.189c.932-.425 3.21 0 3.21 0l6.626 1.486s1.657.531 3.21.531.624 2.126-.415 2.868-1.794.702-1.794.702l-5.35-.065s4.66.85 6.42.956c.891.054 2.42-.574 4.13-1.275 1.665-.684 3.5-1.437 5.084-1.699 3.21-.53 3.728 2.337 2.692 3.399-1.035 1.062-9.318 5.097-10.767 5.628-1.136.416-2.509.278-4.058.122-.429-.043-.872-.088-1.326-.122-1.81-.137-3.192-.577-4.56-1.012-1.468-.466-2.919-.927-4.862-1.006-.652-.026-2.178.055-2.945.1V30.94c1.326-.472 4.011-1.436 4.705-1.752" />
</svg>
